image-plus-outline.svg

<svg fill="currentColor" viewBox="0 0 24 24"><path d="M13 19c0 .7.13 1.37.35 2H5a2 2 0 0 1-2-2V5c0-1.1.9-2 2-2h14a2 2 0 0 1 2 2v8.35c-.63-.22-1.3-.35-2-.35V5H5v14zm.96-6.71-2.75 3.54-1.96-2.36L6.5 17h6.85c.4-1.12 1.12-2.09 2.05-2.79zM20 18v-3h-2v3h-3v2h3v3h2v-3h3v-2z"/></svg>

<svg  viewBox="0 0 24 24" fill="currentColor"><path  d="M13 19C13 19.7 13.13 20.37 13.35 21H5C3.9 21 3 20.11 3 19V5C3 3.9 3.9 3 5 3H19C20.11 3 21 3.9 21 5V13.35C20.37 13.13 19.7 13 19 13V5H5V19H13M13.96 12.29L11.21 15.83L9.25 13.47L6.5 17H13.35C13.75 15.88 14.47 14.91 15.4 14.21L13.96 12.29M20 18V15H18V18H15V20H18V23H20V20H23V18H20Z"/></svg>
